X: 42113
T: Warbling Robin, The
R: barndance
M: 4/4
K: Gmajor
ge|:dBAE GED2|dBAE G2 dg|e3f gedB|B2A2 A2ge|
dBAE GED2|dBAE G2dg|edef g2 ge|1 deBA G2 ge:|2 deBA G2 DE||
G2Bd gbag|e3d egd2|bagd egdf|gedB A2 BA|
G2 Bd gbag|e2ge edBA|G2 Bd edgd|edBA G2 DE|
G2 Bd gbag|e3d egd2|bagd egdf|gedB A2 Bc|
dBAE GED2|dBAE G2dg|edef g3e|deBA G2||

